X: 1
T: THE JOLLY SEVEN -- REEL
B: Ryan's Mammoth Collection of Fiddle Tunes
R: reel
M: C|
L: 1/8
Z: Contributed 20010907015735 by John Chambers jmchambers:rcn.net
K: Ador
 vc2ec gcec | c2ec dBGB | c2ec gcec | afge dBGB |
| c2ec gcec | c2ec dBGB | c2ec gcec | afge dBGB :|
|: ceAe ceAe | ceAe dBGB | ceAe ceAe   | afge dBGB |
|  ceAe ceAe | ceAe dBGB | cdef g2(fg) | afge dBGB :|
